X:2095 
T:She lhong honnick mee as v'ee shiaulley 
C:Tom Kermode, Bradda
O:Isle of Man
S:Traditional 
Z:Clague collection
B:Kiaull Vannin #95 
M:4/4 
L:1/4 
Q:80 
W:She lhong honnick mee as v'ee shiaulley, 
W:As my lomarcan mish er y traie; 
W:V'ee goll roym er y tidey dy tappee O ho! 
W:She ish baatey my ghraih! 
W:B'laik lhiams dy beign goll ersooyl marish, 
W:'Sy baatey goll magh marish my graih. 
K:G 
D|G2 BG|A2 cA|G2 F D|G2 B c|d2 dB|{c} B3:||
|B |AA Bc|e2 GF|G2 FD|G3/2A/ Bd|c3/2B/ AA||G3|| 

